public/favicon.svg

<svg width="32" height="32" viewBox="0 0 32 32" fill="none" xmlns="http://www.w3.org/2000/svg">
<circle cx="16" cy="16" r="16" fill="black"/>
<path d="M7.58094 9.97852C10.4755 15.5566 11.9989 18.5215 12.1512 18.873L16.036 10.0488L19.0595 9.92578V10.2773C18.9071 10.2891 18.7196 10.3125 18.497 10.3477C18.286 10.3828 18.0458 10.4531 17.7762 10.5586C17.5184 10.6523 17.3895 10.7695 17.3895 10.9102V19.9629L17.5302 20.209C17.6239 20.373 17.7528 20.502 17.9169 20.5957C18.0927 20.6895 18.3212 20.7422 18.6024 20.7539L19.0243 20.7188V21.0352C18.3563 21.0117 17.5653 21 16.6512 21C15.6317 21 14.8524 21.0176 14.3134 21.0527V20.7715C14.3368 20.7715 14.4774 20.7598 14.7352 20.7363C14.993 20.7129 15.1864 20.666 15.3153 20.5957C15.6317 20.4551 15.7899 20.2676 15.7899 20.0332V12.0703L11.6591 21.2461H11.3778L6.75477 12.1758C6.75477 12.1758 6.75477 13.7168 6.75477 16.7988C6.75477 18.123 6.75477 19.1133 6.75477 19.7695C6.75477 19.9805 6.76648 20.127 6.78992 20.209C6.81336 20.2793 6.86609 20.3438 6.94812 20.4023C7.04187 20.4492 7.11805 20.502 7.17664 20.5605C7.43445 20.6543 7.75086 20.707 8.12586 20.7188C8.13758 20.7188 8.15516 20.7188 8.17859 20.7188C8.20203 20.7188 8.21961 20.7188 8.23133 20.7188V21.0352C7.65711 21 7.03602 20.9824 6.36805 20.9824C5.62977 20.9824 4.97937 21.0059 4.41687 21.0527V20.7715L5.12 20.6836C5.58875 20.6133 5.89344 20.5137 6.03406 20.3848C6.11609 20.3145 6.18055 20.2207 6.22742 20.1035L6.28016 19.9277C6.30359 19.9277 6.31531 17.1797 6.31531 11.6836C6.25672 11.332 6.01062 11.0332 5.57703 10.7871C5.14344 10.541 4.70984 10.4004 4.27625 10.3652V10.0488L7.58094 9.97852ZM24.0636 19.8047C24.0636 20.332 24.2745 20.5957 24.6964 20.5957C24.6964 20.5957 25.4523 20.6016 26.964 20.6133C27.3741 20.6133 27.7316 20.3848 28.0363 19.9277C28.3527 19.4707 28.546 18.9375 28.6163 18.3281H29.003L28.7218 21.0527H20.6183V20.7715L21.0226 20.7539C21.3038 20.7305 21.5792 20.6777 21.8488 20.5957C22.1183 20.5137 22.2589 20.4082 22.2706 20.2793C22.3292 19.6465 22.3585 17.625 22.3585 14.2148C22.3585 12.2812 22.3468 11.1152 22.3234 10.7168C22.3116 10.5645 22.0655 10.4531 21.5851 10.3828L20.8468 10.2598V9.94336L25.3644 9.92578V10.207C24.5441 10.2539 24.1222 10.4238 24.0988 10.7168C24.0636 13.5176 24.046 15.2051 24.046 15.7793C24.046 16.0723 24.046 16.6348 24.046 17.4668C24.0577 18.2988 24.0636 19.0781 24.0636 19.8047Z" fill="white"/>
</svg>

<svg width="32" height="32" fill="none" xmlns="http://www.w3.org/2000/svg"><circle cx="16" cy="16" r="16" fill="#000"/><path d="M7.58 9.979c2.896 5.578 4.419 8.543 4.571 8.894l3.885-8.824 3.023-.123v.351c-.152.012-.34.036-.562.07a3.667 3.667 0 0 0-.72.212c-.259.093-.387.21-.387.351v9.053l.14.246c.094.164.223.293.387.387.176.093.404.146.685.158l.422-.035v.316A68.752 68.752 0 0 0 16.651 21c-1.02 0-1.799.018-2.338.053v-.282c.024 0 .164-.011.422-.035.258-.023.451-.07.58-.14.317-.14.475-.328.475-.563V12.07l-4.13 9.176h-.282l-4.623-9.07v7.593c0 .212.011.358.035.44.023.07.076.135.158.193.094.047.17.1.229.159.257.093.574.146.949.158h.105v.316a30.571 30.571 0 0 0-1.863-.053c-.738 0-1.389.024-1.951.07v-.28l.703-.088c.469-.07.773-.17.914-.3a.709.709 0 0 0 .193-.28l.053-.176c.024 0 .035-2.748.035-8.244-.058-.352-.304-.65-.738-.897a3.141 3.141 0 0 0-1.3-.422v-.316l3.304-.07Zm16.484 9.826c0 .527.21.79.632.79l2.268.018c.41 0 .768-.228 1.072-.685.317-.457.51-.99.58-1.6h.387l-.281 2.725h-8.104v-.282l.405-.017a3.96 3.96 0 0 0 .826-.158c.27-.082.41-.188.422-.317.058-.633.087-2.654.087-6.064 0-1.934-.011-3.1-.035-3.498-.011-.152-.258-.264-.738-.334l-.738-.123v-.317l4.517-.017v.281c-.82.047-1.242.217-1.265.51-.035 2.8-.053 4.488-.053 5.062v1.688c.012.832.018 1.611.018 2.338Z" fill="#fff"/></svg>
